X:328
T:Polska efter Lasse Lyby
T:(SvL Skåne nr. 1371)
S:efter Lasse Lyby
R:Polska
Z:Patrik Månsson, 2009-01-13
O:Lyby, Skåne
S:Svenska Låtar Skåne
B:Svenska Låtar Skåne
D:Inspelad som låt nr. 4 på skivan "Skåne runt på 75 minuter"
M:3/4
L:1/16
Q:1/4=104
K:A
|:e2a2 a(gb)g g2a2|cdef gfe^d e4|e3c ABc=d e4|
=g4 g=ffd e4 :: =cBcd e4 c4 |(=cd)e=f =g(ef)d e4|
BAB=c d4 B4|B2d2 =g(e=f)d e4|e2a2 a(gb)g g2a2| 
cdef gfe^d e4|e(^de)(c A)(Bc)(=d e)^dec|=dBGB !trill!B2A2 A4:|
(:musicend:)

(:music:)
